<?xml version="1.0" encoding="UTF-8"?>
<map version="1.10" tiledversion="1.12.2" orientation="orthogonal" renderorder="right-down" width="24" height="24" tilewidth="48" tileheight="48" infinite="0" nextlayerid="3" nextobjectid="12">
 <tileset firstgid="1" source="terrain.tsx"/>
 <tileset firstgid="289" source="tileset.tsx"/>
 <tileset firstgid="295" source="lokasie.tsx"/>
 <layer id="1" name="Ground" width="24" height="24">
  <data encoding="csv">
305,305,305,305,305,305,305,305,305,305,305,297,305,305,305,305,305,305,305,305,305,305,305,305,
295,295,295,295,295,295,295,295,295,295,295,297,295,295,295,295,295,295,295,295,295,295,295,295,
295,302,302,302,302,302,302,302,302,295,295,297,295,299,299,299,299,299,299,299,299,299,299,295,
295,302,302,302,302,302,302,302,302,295,295,297,295,299,299,299,295,295,295,295,299,299,299,295,
295,299,299,311,299,299,299,312,299,295,295,297,295,299,299,299,295,295,295,295,299,299,299,295,
295,295,295,295,295,295,295,295,295,295,295,297,295,299,299,299,295,295,295,295,299,299,299,295,
295,295,295,295,295,295,295,295,295,295,295,297,295,299,299,299,299,299,299,299,299,299,299,295,
295,295,303,303,303,303,303,295,295,295,295,297,295,304,304,304,304,295,295,304,304,304,304,295,
295,295,303,303,303,303,303,295,295,295,295,297,295,304,304,304,304,295,295,304,304,304,304,295,
295,295,303,303,303,303,303,295,295,295,295,297,295,304,304,304,304,295,295,304,304,304,304,295,
295,295,301,301,311,301,301,295,295,295,295,297,295,304,304,304,304,295,295,304,304,304,304,295,
295,295,295,295,295,295,295,295,295,295,295,297,295,300,300,311,300,295,295,300,311,300,300,295,
295,295,295,295,295,295,295,295,295,295,295,295,295,295,295,295,295,295,295,295,295,295,295,295,
295,303,303,303,303,303,303,295,295,295,295,297,295,295,302,302,302,302,302,302,302,302,295,295,
295,303,303,303,303,303,303,295,295,295,295,297,295,295,302,302,302,302,302,302,302,302,295,295,
295,301,301,311,301,301,312,295,295,295,295,297,295,295,299,299,299,311,299,299,312,299,295,295,
295,295,295,295,295,295,295,295,295,295,295,297,295,295,295,295,295,295,295,295,295,295,295,295,
306,305,305,305,305,305,305,305,305,305,305,297,305,305,305,305,305,305,305,305,305,305,305,306,
295,295,295,295,295,295,295,295,295,295,295,297,295,295,295,295,295,295,295,295,295,295,295,295,
295,295,304,304,304,304,295,295,295,295,295,297,295,295,295,295,303,303,303,303,295,295,295,295,
295,295,304,304,304,304,295,295,295,295,295,297,295,295,295,295,303,303,303,303,295,295,295,295,
295,295,300,300,311,300,295,295,295,295,295,297,295,295,295,295,301,301,311,301,295,295,295,295,
295,295,295,295,295,295,295,295,295,295,295,297,295,295,295,295,295,295,295,295,295,295,295,295,
305,305,305,305,305,305,305,305,305,305,305,305,305,305,305,305,305,305,305,305,305,305,305,305
  </data>
 </layer>
 <objectgroup id="2" name="Objects">
  <object id="1" name="Spawn" x="552" y="1080">
   <point/>
  </object>
  <object id="2" name="Exit" x="552" y="24">
   <point/>
  </object>
  <object id="3" name="Chest" x="840" y="216">
   <point/>
  </object>
  <object id="4" name="Drum" x="840" y="360">
   <point/>
  </object>
  <object id="5" name="Skollie1" x="264" y="312">
   <point/>
  </object>
  <object id="6" name="Skollie2" x="456" y="888">
   <point/>
  </object>
  <object id="7" name="Lookout1" x="600" y="600">
   <point/>
  </object>
  <object id="8" name="Brak1" x="984" y="792">
   <point/>
  </object>
  <object id="9" name="Tyres1" x="72" y="600">
   <point/>
  </object>
  <object id="10" name="Scrap1" x="1080" y="1080">
   <point/>
  </object>
  <object id="11" name="Hole" x="816" y="288" width="96" height="48"/>
 </objectgroup>
</map>
