<?xml version="1.0" encoding="UTF-8"?>
<map version="1.10" tiledversion="1.12.2" orientation="orthogonal" renderorder="right-down" width="30" height="20" tilewidth="48" tileheight="48" infinite="0" nextlayerid="3" nextobjectid="15">
 <tileset firstgid="1" source="terrain.tsx"/>
 <tileset firstgid="289" source="tileset.tsx"/>
 <tileset firstgid="295" source="lokasie.tsx"/>
 <layer id="1" name="Ground" width="30" height="20">
  <data encoding="csv">
302,302,302,302,302,302,302,302,302,302,303,303,303,303,303,303,303,303,303,304,304,304,304,304,304,304,304,304,304,316,
302,302,302,302,302,302,302,302,302,302,303,303,303,303,303,303,303,303,303,304,304,304,304,304,304,304,304,304,304,316,
302,302,302,302,302,302,302,302,302,302,303,303,303,303,303,303,303,303,303,304,304,304,304,304,304,304,304,304,304,316,
299,299,311,299,299,299,312,299,299,299,301,301,311,301,301,301,312,301,301,300,300,311,299,300,312,300,300,300,300,316,
295,295,295,295,295,295,295,295,295,295,295,295,295,295,295,295,295,295,295,295,295,295,295,295,295,295,295,295,310,316,
295,295,296,295,295,295,295,307,295,295,295,295,295,295,295,295,296,295,295,295,295,295,310,295,295,295,295,295,295,316,
295,295,295,295,295,295,295,295,295,295,295,295,295,295,295,295,295,295,295,295,295,295,295,295,295,295,295,295,295,316,
295,295,295,295,295,295,295,295,295,295,295,295,295,295,295,295,295,295,295,295,295,295,295,295,295,295,295,295,296,316,
298,298,298,298,298,298,298,298,298,298,298,298,298,298,298,298,298,298,298,298,298,298,298,298,298,298,298,298,298,297,
298,298,298,298,298,298,298,298,298,298,298,298,298,298,298,298,298,298,298,298,298,298,298,298,298,298,298,298,298,316,
295,295,295,295,295,295,295,295,295,295,295,295,295,295,295,295,295,295,295,295,295,295,295,295,295,295,295,295,295,316,
299,299,311,299,299,299,312,299,299,301,301,311,301,301,312,301,300,300,311,300,300,300,312,300,295,295,299,299,312,316,
303,303,303,303,303,303,303,303,303,304,304,304,304,304,304,304,302,302,302,302,302,302,302,302,295,295,303,303,303,316,
303,303,303,303,303,303,303,303,303,304,304,304,304,304,304,304,302,302,302,302,302,302,302,302,295,295,303,303,303,316,
303,303,303,303,303,303,303,303,303,304,304,304,304,304,304,304,302,302,302,302,302,302,302,302,295,295,303,303,303,316,
303,303,303,303,303,303,303,303,303,304,304,304,304,304,304,304,302,302,302,302,302,302,302,299,299,299,299,303,303,316,
303,303,303,303,303,303,303,303,303,304,304,304,304,304,304,304,302,302,302,302,302,302,302,299,295,295,299,303,303,316,
303,303,303,303,303,303,303,303,303,304,304,304,304,304,304,304,302,302,302,302,302,302,302,299,295,295,299,303,303,316,
303,303,303,303,303,303,303,303,303,304,304,304,304,304,304,304,302,302,302,302,302,302,302,299,295,295,299,303,303,316,
303,303,303,303,303,303,303,303,303,304,304,304,304,304,304,304,302,302,302,302,302,302,302,299,299,299,299,303,303,316
  </data>
 </layer>
 <objectgroup id="2" name="Objects">
  <object id="1" name="Spawn" x="72" y="408">
   <point/>
  </object>
  <object id="2" name="Exit" x="1416" y="408">
   <point/>
  </object>
  <object id="3" name="Chest" x="1176" y="840">
   <point/>
  </object>
  <object id="4" name="Drum" x="1176" y="696">
   <point/>
  </object>
  <object id="5" name="Spaza" x="600" y="216">
   <point/>
  </object>
  <object id="6" name="YardBoss1" x="1320" y="408">
   <point/>
  </object>
  <object id="7" name="Skollie1" x="312" y="312">
   <point/>
  </object>
  <object id="8" name="Skollie2" x="696" y="504">
   <point/>
  </object>
  <object id="9" name="Lookout1" x="504" y="360">
   <point/>
  </object>
  <object id="10" name="Lookout2" x="984" y="504">
   <point/>
  </object>
  <object id="11" name="Brak1" x="168" y="504">
   <point/>
  </object>
  <object id="12" name="Brak2" x="888" y="264">
   <point/>
  </object>
  <object id="13" name="Drums1" x="1080" y="360">
   <point/>
  </object>
  <object id="14" name="Hole" x="1152" y="720" width="96" height="48"/>
 </objectgroup>
</map>
