<?xml version="1.0" encoding="UTF-8"?>
<map version="1.10" tiledversion="1.12.2" orientation="orthogonal" renderorder="right-down" width="26" height="20" tilewidth="48" tileheight="48" infinite="0" nextlayerid="3" nextobjectid="10">
 <tileset firstgid="1" source="terrain.tsx"/>
 <tileset firstgid="289" source="tileset.tsx"/>
 <tileset firstgid="295" source="lokasie.tsx"/>
 <layer id="1" name="Ground" width="26" height="20">
  <data encoding="csv">
305,305,305,305,305,305,305,305,305,305,305,305,306,297,306,305,305,305,305,305,305,305,305,305,305,305,
295,295,302,302,302,302,302,295,295,295,295,295,295,297,295,295,295,295,303,303,303,303,303,303,295,295,
295,295,302,302,302,302,302,295,295,295,295,295,295,297,295,295,295,295,303,303,303,303,303,303,295,295,
295,295,302,302,302,302,302,295,295,295,295,295,295,297,295,295,295,295,303,303,303,303,303,303,295,295,
295,295,299,299,311,299,299,295,295,295,295,295,295,297,295,295,295,295,301,301,311,301,301,312,295,295,
295,295,295,295,295,295,295,295,295,295,295,295,295,297,295,295,295,295,295,295,295,295,295,295,295,295,
295,295,295,295,296,295,295,295,295,295,295,295,295,297,295,295,295,295,295,296,295,295,295,295,295,295,
295,295,295,295,295,295,295,295,295,295,295,295,295,297,295,295,295,295,295,295,295,295,295,295,295,295,
306,305,305,305,305,305,305,305,305,305,305,306,295,297,295,306,305,305,305,305,305,305,305,305,305,306,
295,295,295,295,295,295,295,304,304,304,304,295,295,297,295,295,295,295,295,295,296,295,295,295,295,295,
295,295,295,295,295,295,295,304,304,304,304,295,295,297,295,295,295,295,295,295,295,295,295,295,295,295,
295,295,295,295,295,295,295,300,300,311,300,295,295,297,295,295,295,295,295,295,295,295,295,295,295,295,
295,315,295,295,295,295,295,295,295,295,295,310,295,297,295,295,310,295,295,295,295,295,296,295,295,295,
310,295,310,295,295,310,295,295,310,295,295,310,295,297,295,310,295,295,310,295,295,310,295,310,295,310,
313,310,313,295,313,310,313,310,313,295,313,310,313,297,313,310,313,295,313,310,313,310,313,295,313,310,
313,313,313,313,313,313,313,313,313,313,313,313,313,313,313,313,313,313,313,313,313,313,313,313,313,313,
313,313,313,313,313,313,313,313,313,313,313,313,313,313,313,313,313,313,313,313,313,313,313,313,313,313,
309,309,309,309,309,309,309,309,309,309,309,309,309,309,309,309,309,309,309,309,309,309,309,309,309,309,
314,314,314,314,314,314,314,314,314,314,314,314,314,314,314,314,314,314,314,314,314,314,314,314,314,314,
314,314,314,314,314,314,314,314,314,314,314,314,314,314,314,314,314,314,314,314,314,314,314,314,314,314
  </data>
 </layer>
 <objectgroup id="2" name="Objects">
  <object id="1" name="Spawn" x="648" y="792">
   <point/>
  </object>
  <object id="2" name="Exit" x="648" y="24">
   <point/>
  </object>
  <object id="3" name="Sign" x="552" y="600">
   <point/>
  </object>
  <object id="4" name="Kid" x="744" y="312">
   <point/>
  </object>
  <object id="5" name="Poacher1" x="216" y="840">
   <point/>
  </object>
  <object id="6" name="Poacher2" x="1032" y="840">
   <point/>
  </object>
  <object id="7" name="Skollie1" x="648" y="504">
   <point/>
  </object>
  <object id="8" name="Tyres1" x="1176" y="600">
   <point/>
  </object>
  <object id="9" name="Scrap1" x="72" y="504">
   <point/>
  </object>
 </objectgroup>
</map>
