<?xml version="1.0" encoding="UTF-8"?>
<map version="1.10" tiledversion="1.12.2" orientation="orthogonal" renderorder="right-down" width="24" height="22" tilewidth="48" tileheight="48" infinite="0" nextlayerid="3" nextobjectid="12">
 <tileset firstgid="1" source="terrain.tsx"/>
 <tileset firstgid="289" source="tileset.tsx"/>
 <tileset firstgid="295" source="lokasie.tsx"/>
 <layer id="1" name="Ground" width="24" height="22">
  <data encoding="csv">
306,305,305,305,305,305,305,305,305,305,305,305,305,305,305,305,305,305,305,305,305,305,305,306,
305,295,295,295,295,295,295,295,295,295,295,295,295,295,295,295,295,295,295,295,295,295,295,305,
305,295,295,307,307,295,295,295,295,295,295,295,295,295,295,296,295,295,295,295,295,295,295,305,
305,295,295,307,307,295,295,295,295,295,295,295,295,295,295,299,299,299,299,299,295,295,295,305,
305,295,295,295,295,295,295,295,295,295,295,295,295,295,295,299,295,295,295,299,295,295,295,305,
305,295,295,295,295,295,308,308,295,295,295,295,295,295,295,299,295,295,295,299,295,295,295,305,
305,295,295,295,295,295,308,308,295,295,295,295,295,295,295,299,295,295,295,299,295,295,295,305,
305,295,295,295,295,295,295,295,295,295,295,295,295,295,295,299,299,295,299,299,295,295,295,305,
305,295,295,295,295,295,295,295,295,295,295,295,295,295,295,295,295,295,295,295,295,295,295,305,
305,295,307,307,295,295,295,295,295,295,295,296,295,295,295,295,295,307,295,295,295,295,295,305,
305,295,307,307,295,295,295,295,295,295,295,295,295,295,295,296,295,295,295,295,295,295,295,305,
297,295,295,295,295,295,295,295,295,295,295,295,295,295,295,295,295,295,295,295,295,295,295,297,
305,295,295,295,295,295,295,308,308,295,295,295,295,295,295,295,295,295,295,295,295,295,295,305,
305,295,295,295,295,295,295,308,308,295,295,295,295,295,307,307,295,295,295,295,295,295,295,305,
305,295,295,295,295,295,295,295,295,295,295,295,295,295,307,307,295,295,295,295,295,295,295,305,
305,295,295,295,295,302,302,302,302,302,295,295,295,295,295,295,295,295,295,295,295,295,295,305,
305,295,295,295,295,302,302,302,302,302,295,295,295,295,295,295,295,295,295,295,295,295,295,305,
305,295,295,295,295,299,299,311,299,299,295,295,295,295,295,295,295,295,295,296,295,295,295,305,
305,295,295,295,295,295,295,295,295,295,295,295,295,295,295,295,295,295,295,295,295,295,295,305,
305,295,295,308,295,295,295,295,295,295,295,295,295,307,307,307,295,295,295,295,295,295,295,305,
305,295,295,295,295,295,295,295,295,295,295,295,295,295,295,295,295,295,295,295,295,295,295,305,
306,305,305,305,305,305,305,305,305,305,305,305,305,305,305,305,305,305,305,305,305,305,305,306
  </data>
 </layer>
 <objectgroup id="2" name="Objects">
  <object id="1" name="Spawn" x="72" y="552">
   <point/>
  </object>
  <object id="2" name="Exit" x="1128" y="552">
   <point/>
  </object>
  <object id="3" name="Chest" x="840" y="264">
   <point/>
  </object>
  <object id="4" name="Padlock" x="840" y="360">
   <point/>
  </object>
  <object id="5" name="Ledger" x="648" y="408">
   <point/>
  </object>
  <object id="6" name="YardBoss1" x="1032" y="552">
   <point/>
  </object>
  <object id="7" name="Skollie1" x="504" y="216">
   <point/>
  </object>
  <object id="8" name="Skollie2" x="600" y="888">
   <point/>
  </object>
  <object id="9" name="Brak1" x="312" y="600">
   <point/>
  </object>
  <object id="10" name="Drums1" x="984" y="840">
   <point/>
  </object>
  <object id="11" name="Scrap1" x="264" y="936">
   <point/>
  </object>
 </objectgroup>
</map>
