<?xml version="1.0" encoding="UTF-8"?>
<map version="1.10" tiledversion="1.12.1" orientation="orthogonal" renderorder="right-down" width="35" height="60" tilewidth="48" tileheight="48" infinite="0" nextlayerid="2" nextobjectid="1">
 <tileset firstgid="1" source="tileset.tsx"/>
 <layer id="1" name="Tile Layer 1" width="35" height="60">
  <data encoding="csv">
1,1,1,1,1,2,1,2,2,2,1,2,2,1,1,1,2,2,1,2,1,1,2,1,1,1,2,1,1,1,2,2,2,1,1,
1,1,2,2,2,3,3,3,3,3,3,3,1,3,3,3,3,3,3,3,3,2,1,1,1,1,2,2,2,1,2,1,1,2,2,
2,1,1,3,3,3,3,3,3,3,3,3,3,3,3,3,3,3,3,3,3,3,3,3,3,3,3,3,3,3,3,3,1,1,2,
2,2,3,3,3,3,3,3,3,3,3,3,6,6,6,6,3,3,3,3,3,3,3,3,3,3,3,3,3,3,3,3,2,2,1,
1,1,3,3,3,3,6,6,6,6,6,6,6,6,6,6,6,6,6,3,3,3,3,3,3,3,3,3,3,3,3,3,2,1,1,
1,1,3,3,3,3,6,6,6,6,6,6,6,6,6,6,6,6,6,6,3,3,3,3,3,3,3,3,3,3,3,3,3,2,1,
1,1,3,3,3,3,6,6,6,6,6,6,6,6,6,6,6,6,6,6,3,3,3,3,3,3,3,3,3,3,3,3,3,1,1,
1,1,3,3,3,6,6,6,6,6,6,6,6,6,6,6,6,6,6,6,3,3,3,3,3,3,3,3,3,3,3,3,3,1,1,
1,1,3,3,3,6,6,6,6,6,6,6,6,6,6,6,6,6,6,6,3,3,3,3,3,3,3,3,3,3,3,3,3,1,1,
2,2,3,3,3,6,6,6,6,6,6,6,6,6,6,6,6,6,6,6,3,3,3,3,3,3,3,3,3,3,3,3,2,2,2,
2,2,3,3,3,6,6,6,6,6,6,6,6,6,6,6,6,6,6,6,3,3,3,3,3,3,3,3,3,3,2,2,2,2,1,
1,2,3,3,3,3,3,6,6,6,6,6,6,6,6,6,6,3,3,3,3,3,3,3,1,1,2,1,1,1,2,1,1,1,1,
1,2,3,3,3,3,3,3,6,6,6,6,6,6,3,3,3,3,3,3,3,3,3,1,2,2,1,2,1,2,1,2,1,1,1,
2,2,3,3,3,3,3,3,3,3,3,3,3,3,3,3,3,3,3,3,1,1,1,1,2,2,2,2,2,1,1,1,2,2,1,
1,1,3,3,3,3,3,3,3,3,3,3,3,3,3,3,3,3,1,2,1,1,1,1,2,1,2,1,1,2,1,2,2,2,2,
1,1,3,3,3,3,3,2,3,3,3,3,3,3,3,3,3,1,2,1,2,2,2,1,2,1,2,2,2,1,1,1,2,2,2,
1,2,2,2,2,2,2,2,3,3,3,3,2,2,2,2,2,1,2,2,2,2,2,2,1,1,2,2,1,2,2,1,2,2,2,
1,1,2,2,2,2,2,2,2,2,2,2,2,2,2,2,2,1,1,1,1,2,1,1,2,2,1,1,2,1,1,2,2,2,2,
2,1,2,3,3,1,2,2,2,2,2,2,2,2,2,2,1,2,1,1,2,2,2,1,1,1,2,2,2,1,2,2,2,2,1,
2,1,1,3,3,3,3,3,2,2,3,3,3,3,3,1,1,1,2,2,2,2,1,1,1,2,1,1,1,2,1,1,2,1,2,
2,2,2,3,3,3,3,3,3,3,3,3,3,3,2,1,2,2,1,1,2,1,1,1,2,2,2,1,1,2,2,2,1,2,1,
1,1,1,3,3,3,3,3,3,3,3,3,3,3,1,2,1,1,2,1,1,1,2,1,2,2,2,2,1,1,2,2,1,1,2,
2,1,1,3,3,3,6,3,3,3,3,3,3,2,2,1,1,1,2,2,1,1,1,1,2,1,2,2,2,3,3,3,1,1,1,
1,1,2,3,3,3,6,6,6,6,3,3,3,1,2,2,1,2,2,2,2,1,1,2,1,1,2,3,3,3,3,3,3,1,1,
2,1,1,3,3,3,6,6,6,3,3,3,3,1,1,2,1,2,1,1,2,1,2,1,2,2,2,3,3,3,3,3,3,1,1,
2,2,1,3,3,6,6,6,6,6,6,3,3,1,2,1,1,1,1,1,2,1,2,1,2,1,1,3,3,3,3,3,3,1,1,
1,2,1,3,3,6,6,6,6,6,6,3,3,3,3,2,1,1,2,1,1,1,1,1,1,2,2,3,3,3,3,3,3,1,2,
2,2,2,3,3,6,6,6,6,6,6,3,3,3,3,1,1,1,2,2,1,1,1,1,2,1,2,3,3,6,6,3,3,2,2,
2,1,1,3,3,6,6,3,3,3,6,3,3,3,3,1,1,1,1,1,2,1,1,2,2,2,3,3,6,6,6,6,3,2,2,
2,2,2,3,3,3,6,6,6,6,3,3,3,3,3,3,3,3,3,3,3,3,3,3,3,3,3,3,3,6,6,6,3,2,2,
2,2,2,3,3,3,3,3,3,6,3,3,3,3,3,3,3,3,3,3,3,3,3,3,3,3,3,3,6,6,6,6,3,1,1,
2,1,2,3,3,3,6,6,6,6,6,6,3,3,3,3,3,3,3,3,3,3,3,3,3,3,3,3,6,6,6,6,3,1,2,
2,2,2,2,3,3,6,6,6,6,6,6,3,3,3,3,3,3,3,3,3,3,3,3,3,3,3,3,6,6,6,6,3,1,1,
2,1,1,2,3,3,6,6,6,6,6,3,3,3,3,3,3,3,3,3,3,3,3,3,3,3,3,3,6,6,6,6,3,1,1,
2,2,1,2,3,3,6,6,6,6,6,3,3,3,3,3,3,3,3,3,3,3,3,3,1,1,3,3,6,6,6,3,3,1,1,
2,1,2,1,3,3,6,6,6,6,6,3,3,3,3,1,2,2,1,1,1,1,1,2,1,1,3,3,3,3,3,3,3,1,2,
1,1,2,1,3,3,6,6,6,6,6,3,3,2,2,1,2,2,2,2,2,1,2,1,1,2,1,3,3,3,3,3,3,2,1,
1,2,1,2,3,3,6,6,6,6,6,3,3,1,1,1,2,1,1,2,2,2,1,1,2,1,2,3,3,3,3,3,1,2,1,
2,2,2,1,3,3,6,6,6,6,3,3,3,1,2,1,2,1,2,2,1,1,2,2,1,1,2,1,1,2,2,2,2,2,2,
2,1,2,2,3,3,6,6,6,6,6,3,3,3,2,2,1,1,2,2,2,1,1,1,1,1,1,1,1,1,2,1,2,2,1,
2,1,2,1,3,3,6,6,6,6,6,3,3,3,2,1,2,2,2,1,2,2,1,1,1,1,1,1,1,2,2,1,1,2,1,
2,1,2,2,3,3,6,6,6,6,6,3,3,3,2,2,2,1,2,2,1,2,2,1,1,2,2,1,2,2,1,2,1,2,1,
2,2,2,1,3,3,6,6,6,6,6,3,3,3,2,2,2,2,1,1,1,1,2,1,1,1,2,1,1,1,1,2,2,2,2,
2,1,1,1,3,3,6,6,6,6,6,3,3,3,1,1,2,2,1,1,2,2,1,2,2,2,2,1,1,1,2,2,2,1,1,
2,2,2,2,3,3,6,6,6,6,6,3,3,3,2,1,2,1,1,1,1,2,2,1,1,2,1,1,1,1,2,2,2,2,2,
1,1,2,2,3,3,6,6,6,6,6,3,3,3,1,1,2,2,2,2,1,2,2,1,1,2,2,1,1,1,2,1,1,1,2,
2,1,1,1,3,3,6,6,6,6,6,3,3,3,2,2,2,2,1,1,1,1,2,2,2,2,1,1,1,1,1,1,1,2,1,
1,2,1,1,3,3,6,6,6,6,3,3,3,3,1,1,2,1,2,2,2,1,1,1,2,1,2,1,2,1,1,2,1,1,1,
1,2,2,1,3,3,6,6,6,6,3,3,3,1,1,1,1,1,1,1,1,2,2,2,2,1,1,2,1,2,1,1,2,1,2,
2,1,2,2,3,3,6,6,6,6,6,3,3,3,2,2,2,1,1,2,2,1,1,2,2,2,1,1,2,1,1,2,1,2,2,
1,2,2,1,3,3,3,3,3,6,6,3,3,3,3,3,3,1,1,2,2,2,2,1,1,1,2,2,1,1,2,1,2,1,2,
1,2,2,3,3,3,3,3,3,3,3,3,3,3,3,3,3,3,2,1,2,2,2,3,3,3,1,1,1,2,1,2,1,1,1,
2,2,1,3,3,3,3,3,3,3,3,3,3,3,3,3,3,3,3,3,3,3,3,3,3,3,3,3,3,2,2,2,2,2,1,
1,2,2,3,3,3,3,3,3,3,3,3,3,3,3,3,3,3,3,3,3,3,3,3,3,3,3,3,3,3,2,2,2,2,2,
2,1,3,3,3,3,3,3,3,3,3,3,3,3,3,3,3,3,3,3,3,3,3,3,3,3,3,3,1,2,2,2,1,1,1,
1,1,3,3,3,3,3,3,3,3,3,3,3,3,3,3,3,3,3,3,3,3,3,3,2,3,3,3,3,1,2,2,1,2,1,
1,1,3,3,3,3,3,3,3,3,2,2,3,3,3,3,3,3,3,3,3,3,2,1,2,2,2,1,1,2,2,1,2,2,1,
1,1,3,3,3,3,3,3,3,3,2,2,2,2,3,3,3,3,3,3,3,1,2,1,1,1,2,1,2,1,1,1,2,1,2,
1,3,3,1,1,1,1,2,2,2,2,2,2,2,1,2,1,2,1,1,2,1,1,2,2,2,1,2,2,1,1,2,1,1,1,
2,2,1,2,1,1,2,1,2,1,2,1,1,2,2,2,1,1,2,2,1,1,2,2,1,1,2,1,2,2,1,1,1,2,1
</data>
 </layer>
</map>
