<?xml version="1.0" encoding="UTF-8"?>
<map version="1.10" tiledversion="1.12.2" orientation="orthogonal" renderorder="right-down" width="20" height="18" tilewidth="48" tileheight="48" infinite="0" nextlayerid="3" nextobjectid="7">
 <tileset firstgid="1" source="terrain.tsx"/>
 <tileset firstgid="289" source="tileset.tsx"/>
 <tileset firstgid="295" source="lokasie.tsx"/>
 <layer id="1" name="Ground" width="20" height="18">
  <data encoding="csv">
316,316,316,316,316,316,316,316,316,316,316,316,316,316,316,316,316,316,316,316,
316,295,295,295,295,295,295,295,295,295,295,295,295,295,295,295,295,295,295,316,
316,295,295,295,295,310,295,295,295,295,295,295,296,295,295,295,295,295,295,316,
316,295,295,295,295,295,295,295,317,317,317,317,295,295,295,295,295,295,295,316,
316,295,295,295,295,295,295,317,317,317,317,317,317,295,295,295,295,295,295,316,
316,295,295,295,295,295,317,317,317,317,317,317,317,317,295,295,295,295,295,316,
316,295,295,295,295,295,317,317,317,317,317,317,317,317,295,295,295,295,295,316,
316,295,295,295,295,295,317,317,317,317,317,317,317,317,295,295,295,295,295,316,
316,295,295,295,295,295,317,317,317,317,317,317,317,317,295,295,295,295,295,316,
297,295,295,295,295,295,317,317,317,317,317,317,317,317,295,295,295,295,295,316,
316,295,295,295,295,295,295,317,317,317,317,317,317,295,295,295,295,295,295,316,
316,295,295,295,295,295,295,316,316,295,316,316,316,295,295,295,295,295,295,316,
316,295,295,295,295,295,295,295,295,295,295,295,295,295,295,295,295,295,295,316,
316,295,295,315,295,295,295,295,295,295,296,295,295,295,295,295,295,295,295,316,
316,295,295,295,295,295,295,295,310,295,295,295,295,295,295,295,295,295,295,316,
316,295,295,295,295,295,295,295,295,295,295,295,295,295,295,295,295,295,295,316,
316,295,295,295,295,295,295,295,295,295,295,295,295,295,295,295,295,295,295,316,
316,316,316,316,316,316,316,316,316,316,316,316,316,316,316,316,316,316,316,316
  </data>
 </layer>
 <objectgroup id="2" name="Objects">
  <object id="1" name="Spawn" x="72" y="456">
   <point/>
  </object>
  <object id="2" name="Exit" x="24" y="456">
   <point/>
  </object>
  <object id="3" name="HutDoor" x="456" y="552">
   <point/>
  </object>
  <object id="4" name="Drums1" x="168" y="744">
   <point/>
  </object>
  <object id="5" name="Scrap1" x="744" y="696">
   <point/>
  </object>
  <object id="6" name="Tyres1" x="792" y="120">
   <point/>
  </object>
 </objectgroup>
</map>
