<?xml version="1.0" encoding="UTF-8"?>
<map version="1.10" tiledversion="1.12.2" orientation="orthogonal" renderorder="right-down" width="28" height="20" tilewidth="48" tileheight="48" infinite="0" nextlayerid="3" nextobjectid="13">
 <tileset firstgid="1" source="terrain.tsx"/>
 <tileset firstgid="289" source="tileset.tsx"/>
 <tileset firstgid="295" source="lokasie.tsx"/>
 <layer id="1" name="Ground" width="28" height="20">
  <data encoding="csv">
302,302,302,302,302,302,302,302,302,302,302,302,302,302,302,302,302,302,302,302,302,302,302,302,302,302,302,302,
302,302,302,302,302,302,302,302,302,302,302,302,302,302,302,302,302,302,302,302,302,302,302,302,302,302,302,302,
299,299,311,299,299,299,312,299,299,299,299,311,299,299,299,299,312,299,299,299,311,299,299,299,312,299,299,299,
295,295,295,295,295,295,295,295,295,305,295,295,295,295,295,295,295,295,295,305,295,305,295,295,295,295,295,295,
295,295,295,295,295,295,295,295,295,305,295,295,295,295,295,295,295,295,295,305,295,305,295,295,295,295,295,295,
295,295,295,295,295,295,295,295,295,305,295,295,295,295,295,295,295,295,295,305,295,305,295,295,295,295,295,295,
295,295,295,295,295,295,295,295,295,305,295,295,295,295,295,295,295,295,295,305,295,305,295,295,295,295,295,295,
295,295,295,295,295,295,295,295,295,305,295,295,295,295,295,295,295,295,295,305,295,306,305,305,295,305,305,305,
296,296,296,296,296,296,296,296,296,305,296,296,296,296,296,296,296,296,296,305,296,296,296,296,296,296,296,296,
309,309,309,309,309,309,309,309,309,309,309,309,309,309,309,309,309,309,309,309,309,309,309,309,309,309,309,314,
309,309,309,309,309,309,309,309,309,309,309,309,309,309,309,309,309,309,309,309,309,309,309,309,309,309,309,314,
296,296,296,296,296,296,305,296,296,296,296,296,296,296,305,296,296,296,296,296,296,296,305,296,296,296,296,296,
295,295,295,295,295,295,305,295,295,295,295,295,295,295,305,295,295,295,295,295,295,295,305,295,295,295,295,295,
295,295,295,295,295,295,305,295,295,295,295,295,295,295,305,295,295,295,295,295,295,295,305,295,295,295,295,295,
295,295,295,295,295,295,305,295,295,295,295,295,295,295,305,295,295,295,295,295,295,295,305,295,295,295,295,295,
295,295,295,295,295,295,305,295,295,295,295,295,295,295,305,295,295,295,295,295,295,295,305,295,295,295,295,295,
295,295,295,295,295,295,306,295,295,295,295,295,295,295,306,295,295,295,295,295,295,295,306,295,295,295,295,295,
299,299,311,299,299,299,299,299,299,311,299,299,299,299,299,312,299,299,311,299,299,299,299,299,299,312,299,299,
303,303,303,303,303,303,303,303,303,303,303,303,303,303,303,303,303,303,303,303,303,303,303,303,303,303,303,303,
303,303,303,303,303,303,303,303,303,303,303,303,303,303,303,303,303,303,303,303,303,303,303,303,303,303,303,303
  </data>
 </layer>
 <objectgroup id="2" name="Objects">
  <object id="1" name="Spawn" x="72" y="264">
   <point/>
  </object>
  <object id="2" name="Exit" x="1320" y="648">
   <point/>
  </object>
  <object id="3" name="Chest" x="1224" y="216">
   <point/>
  </object>
  <object id="4" name="Wire" x="1176" y="360">
   <point/>
  </object>
  <object id="5" name="Ouma" x="216" y="792">
   <point/>
  </object>
  <object id="6" name="Lookout1" x="600" y="360">
   <point/>
  </object>
  <object id="7" name="Lookout2" x="888" y="600">
   <point/>
  </object>
  <object id="8" name="Skollie1" x="792" y="264">
   <point/>
  </object>
  <object id="9" name="Skollie2" x="1176" y="648">
   <point/>
  </object>
  <object id="10" name="Brak1" x="408" y="696">
   <point/>
  </object>
  <object id="11" name="Tyres1" x="120" y="168">
   <point/>
  </object>
  <object id="12" name="Drums1" x="1272" y="744">
   <point/>
  </object>
 </objectgroup>
</map>
