<?xml version="1.0" encoding="UTF-8"?>
<map version="1.10" tiledversion="1.12.2" orientation="orthogonal" renderorder="right-down" width="35" height="60" tilewidth="48" tileheight="48" infinite="0" nextlayerid="4" nextobjectid="32">
 <tileset firstgid="1" source="terrain.tsx"/>
 <tileset firstgid="289" source="tileset.tsx"/>
 <layer id="1" name="Tile Layer 1" width="35" height="60">
  <data encoding="csv">
30,102,102,102,31,121,121,121,121,121,121,121,121,121,121,121,121,121,121,121,121,121,121,121,121,121,121,121,121,121,121,121,121,121,121,
30,30,102,102,31,121,121,121,121,121,121,121,121,121,121,121,121,121,121,121,121,121,121,121,121,121,121,121,121,121,121,121,121,121,121,
30,30,102,102,31,121,121,121,121,121,121,121,121,121,121,121,121,121,121,121,121,121,121,121,121,121,121,121,121,121,121,121,121,121,121,
30,102,30,30,31,121,121,121,121,121,121,121,121,121,121,121,121,121,121,121,121,121,121,121,121,121,121,121,121,121,121,121,291,121,121,
30,30,102,102,77,4,291,291,291,291,291,291,291,291,291,121,121,121,121,121,121,121,121,121,121,121,121,121,121,121,121,121,121,121,121,
30,30,102,102,30,30,30,77,6,6,6,6,6,6,6,291,291,291,291,291,291,291,291,291,291,291,291,291,291,291,291,291,291,291,291,
30,30,30,102,102,30,30,30,30,30,30,30,30,30,30,30,6,6,6,6,6,6,6,6,6,6,6,6,6,6,6,6,6,6,6,
30,30,30,30,30,30,30,30,30,30,30,30,30,30,30,30,30,30,30,30,30,30,30,30,30,30,30,30,30,30,30,30,30,30,30,
30,30,30,30,30,30,30,30,30,30,30,30,30,30,30,30,30,30,30,30,30,30,30,30,30,30,30,30,30,30,30,30,30,30,30,
30,30,30,53,126,126,126,126,126,126,126,126,126,126,126,126,126,126,126,126,126,101,30,30,30,30,30,30,30,30,30,30,30,30,30,
30,30,30,31,121,121,121,121,121,121,121,121,121,121,121,121,121,121,121,121,121,76,30,30,30,30,30,30,30,30,30,30,30,30,30,
30,30,30,103,121,121,121,121,121,121,121,121,149,174,174,148,121,121,121,121,121,76,30,30,30,30,30,30,30,30,30,30,30,30,30,
30,30,30,77,4,121,121,121,121,121,149,174,174,174,174,174,148,121,121,121,121,76,30,30,30,30,30,30,30,30,30,30,30,30,30,
30,30,30,30,31,121,121,121,121,149,174,174,174,174,174,174,175,121,121,121,121,76,30,30,30,30,30,30,30,30,30,30,30,30,30,
30,30,30,30,77,121,121,121,149,174,174,174,174,174,174,174,175,121,121,121,5,29,30,30,30,30,30,30,30,30,30,30,30,30,30,
30,30,30,30,30,31,121,121,269,174,174,174,174,174,174,174,175,121,121,121,125,101,30,30,30,30,30,30,30,30,30,30,30,30,30,
30,30,30,30,30,31,121,121,121,269,174,174,174,174,174,174,175,121,121,121,121,125,101,30,30,30,30,30,30,30,30,30,30,30,30,
30,30,30,30,30,31,121,121,121,121,269,174,174,174,174,270,268,121,121,121,121,121,76,30,30,30,30,30,30,30,30,30,30,30,30,
30,30,30,30,30,77,4,121,121,121,121,269,270,270,268,121,121,121,121,121,121,121,76,30,30,30,30,30,30,30,30,30,30,30,30,
30,30,30,30,30,30,31,121,121,121,121,121,121,121,121,121,121,121,121,121,121,121,76,30,30,30,30,30,30,30,30,30,30,30,30,
30,30,30,30,30,30,31,121,121,121,121,121,121,121,121,121,121,121,121,121,121,121,76,30,30,30,30,30,30,30,30,30,30,30,30,
30,30,30,30,30,53,124,121,121,121,121,121,121,121,121,121,121,121,121,121,121,5,29,30,30,30,30,30,30,30,30,30,30,30,30,
30,30,30,30,30,31,121,121,121,121,121,121,121,121,121,121,121,121,121,121,5,29,30,30,30,30,30,30,30,30,30,30,30,30,30,
30,30,30,30,30,31,121,121,121,121,121,121,121,121,121,121,121,121,121,121,29,30,30,30,30,30,30,30,30,30,30,30,30,30,30,
30,30,30,30,53,124,121,121,121,121,121,121,121,121,121,121,121,5,6,29,30,30,30,30,30,30,30,30,30,30,30,30,30,30,30,
30,30,30,53,124,121,121,121,121,121,121,121,121,121,121,121,5,29,30,30,30,30,30,293,293,293,293,293,293,293,293,293,293,293,293,
30,30,30,31,121,121,121,121,121,121,121,121,121,121,121,121,76,30,30,30,30,30,30,293,30,30,30,30,30,30,30,30,30,30,293,
30,30,30,103,121,121,121,121,121,121,121,121,121,121,121,121,125,101,30,30,30,30,30,293,30,30,53,126,126,126,126,126,101,30,293,
30,30,30,77,4,121,121,121,121,121,121,121,121,121,121,121,121,125,101,30,30,30,30,293,30,53,124,121,121,121,121,121,125,101,293,
30,30,30,30,31,121,121,121,121,121,149,150,148,121,121,121,121,121,125,126,101,30,30,293,53,124,121,121,121,121,121,121,121,76,293,
30,30,30,30,31,121,121,121,121,149,173,174,175,121,121,121,121,121,121,121,76,30,30,30,103,128,121,121,121,121,121,121,121,76,293,
30,30,30,30,31,121,121,121,121,220,174,174,175,121,121,121,121,121,121,121,76,30,30,293,31,121,121,121,121,121,121,121,121,76,293,
30,30,30,30,77,4,121,121,121,220,174,174,221,148,121,121,121,121,121,121,76,30,30,293,31,121,121,121,121,121,121,121,121,76,293,
30,30,30,30,30,31,121,121,121,220,174,174,174,175,121,121,121,121,121,121,76,30,30,293,77,4,121,121,121,121,121,121,121,76,293,
30,30,30,30,30,31,121,121,121,220,174,174,174,175,121,121,121,121,121,121,76,30,30,293,30,31,121,121,121,121,121,121,121,76,293,
30,30,30,30,30,31,121,121,121,269,245,174,174,175,121,121,121,121,121,5,29,30,30,293,30,77,4,121,121,121,121,121,5,29,293,
30,30,30,30,53,124,121,121,121,121,220,174,174,175,121,121,121,121,5,29,30,30,30,293,30,30,77,6,6,6,6,6,29,30,293,
30,30,30,30,31,121,121,121,121,121,220,174,174,268,121,121,121,5,29,30,30,30,30,293,293,293,293,293,293,293,293,293,293,293,293,
30,30,30,53,124,121,121,121,121,121,220,174,175,121,200,121,121,76,30,30,30,30,30,30,30,30,30,30,30,30,30,30,30,30,30,
30,30,30,31,121,121,121,121,149,150,173,174,175,121,121,121,121,76,30,30,30,30,30,30,30,30,30,30,30,30,30,30,30,30,30,
30,30,30,31,121,121,149,174,174,174,174,174,221,148,121,121,121,76,30,30,30,30,30,30,30,30,30,30,30,30,30,30,30,30,30,
30,30,30,31,121,121,220,174,174,174,174,174,174,175,121,121,5,29,30,30,30,30,30,30,30,30,30,30,30,30,30,30,30,30,30,
30,30,30,31,121,121,220,174,174,174,174,174,174,175,121,5,29,30,30,30,30,30,53,54,101,30,30,30,30,30,30,30,30,30,30,
30,30,30,31,121,121,220,174,174,174,174,174,174,175,121,76,30,30,30,30,53,126,124,121,125,126,126,101,30,30,30,30,30,30,30,
30,30,30,31,121,121,220,174,174,174,174,174,174,175,121,125,54,126,126,126,124,121,121,121,121,121,121,52,30,30,30,30,30,30,30,
30,30,30,31,121,121,220,174,174,174,174,174,174,175,121,121,56,121,121,121,121,121,121,121,121,121,121,52,30,30,30,30,30,30,30,
30,30,30,31,121,121,220,174,174,174,174,174,174,221,148,121,121,121,121,121,121,121,121,121,121,5,6,29,30,30,30,30,30,30,30,
30,30,30,31,121,121,269,174,174,174,174,174,174,174,175,121,121,121,121,121,121,121,5,6,6,29,30,30,30,30,30,30,30,30,30,
30,30,30,31,121,121,121,174,174,174,174,174,174,174,268,121,121,121,121,121,121,5,29,30,30,30,30,30,30,30,30,30,30,30,30,
30,30,30,31,121,121,121,269,270,270,245,174,174,268,121,121,121,121,121,121,121,76,30,30,30,30,30,30,30,30,30,30,30,30,30,
30,30,30,77,4,121,121,121,121,121,269,270,268,121,121,121,121,121,121,121,5,29,30,30,30,30,30,30,30,30,30,30,30,30,30,
30,30,30,30,31,121,121,121,121,121,121,121,121,121,121,121,121,121,121,121,76,30,30,30,30,30,30,30,30,30,30,30,30,30,30,
30,30,30,30,31,121,121,121,121,121,121,121,121,121,121,121,121,121,121,122,52,30,30,30,30,30,30,30,30,30,30,30,30,30,30,
30,30,30,30,77,6,4,121,121,121,121,121,121,121,121,121,121,121,80,121,76,30,30,30,30,30,30,30,30,30,30,30,30,30,30,
30,30,30,30,30,30,77,6,6,6,6,6,6,6,6,6,6,6,78,6,29,30,30,30,30,30,30,30,30,30,30,30,30,30,30,
30,30,30,30,30,30,30,30,30,30,30,30,30,30,30,30,30,30,30,30,30,30,30,30,30,30,30,30,30,30,30,30,30,30,30,
30,30,30,30,30,30,30,30,30,30,30,30,30,30,30,30,30,30,30,30,30,30,30,30,30,30,30,30,30,30,30,30,30,30,30,
30,30,30,30,30,30,30,30,30,30,30,30,30,30,30,30,30,30,30,30,30,30,30,30,30,30,30,30,30,30,30,30,30,30,30,
30,30,30,30,30,30,30,30,30,30,30,30,30,30,30,30,30,30,30,30,30,30,30,30,30,30,30,30,30,30,30,30,30,30,30,
30,30,30,30,30,30,30,30,30,30,30,30,30,30,30,30,30,30,30,30,30,30,30,30,30,30,30,30,30,30,30,30,30,30,30
</data>
 </layer>
 <objectgroup id="3" name="NPCs">
  <object id="2" name="Spawn" x="504" y="2484">
   <point/>
  </object>
  <object id="3" name="ShellCache" x="1418.94" y="1523.77">
   <point/>
  </object>
  <object id="4" name="Blockage" x="1125.05" y="1460.13">
   <point/>
  </object>
  <object id="5" name="ExitTown" x="1617.37" y="28.0794">
   <point/>
  </object>
  <object id="6" name="CormorantMa" x="504" y="2520">
   <point/>
  </object>
  <object id="7" name="CormorantPa" x="600" y="2520">
   <point/>
  </object>
  <object id="8" name="CormorantSib" x="696" y="2472">
   <point/>
  </object>
  <object id="9" name="Ryno" x="600" y="504">
   <point/>
  </object>
  <object id="10" name="Gull" x="408" y="2232">
   <point/>
  </object>
  <object id="13" name="RaidGull1" x="360" y="2184">
   <point/>
  </object>
  <object id="14" name="RaidGull2" x="456" y="2184">
   <point/>
  </object>
  <object id="15" name="RaidGull3" x="600" y="2232">
   <point/>
  </object>
  <object id="16" name="TidePool1" x="360" y="984">
   <point/>
  </object>
  <object id="17" name="TidePool2" x="792" y="1368">
   <point/>
  </object>
  <object id="18" name="TidePool3" x="312" y="2376">
   <point/>
  </object>
  <object id="19" name="Buoy" x="1032" y="1368">
   <point/>
  </object>
  <object id="20" name="StormNest" x="264" y="1272">
   <point/>
  </object>
  <object id="21" name="Crate" x="312" y="600">
   <point/>
  </object>
  <object id="22" name="OomKarel" x="360" y="2424">
   <point/>
  </object>
  <object id="23" name="TannieBettie" x="792" y="2472">
   <point/>
  </object>
  <object id="24" name="Driftwood" x="504" y="1080">
   <point/>
  </object>
  <object id="25" name="ShellPile" x="744" y="984">
   <point/>
  </object>
  <object id="26" name="StonePile" x="600" y="2376">
   <point/>
  </object>
  <object id="27" name="RynoCove" x="936" y="1512">
   <point/>
  </object>
  <object id="28" name="RynoSouth" x="552" y="1992">
   <point/>
  </object>
  <object id="29" name="RynoChannel" x="504" y="504">
   <point/>
  </object>
  <object id="30" name="Pen1" x="408" y="2328">
   <point/>
  </object>
  <object id="31" name="Pen2" x="552" y="2328">
   <point/>
  </object>
  <object id="11" name="SwimCove" x="912" y="1344" width="384" height="240"/>
  <object id="12" name="SwimChannel" x="192" y="240" width="672" height="240"/>
 </objectgroup>
</map>
